img/sneakerhub.svg

<svg width="596" height="69" viewBox="0 0 596 69" fill="none" xmlns="http://www.w3.org/2000/svg">
<path d="M24.6 68.2C20.3333 68.2 16.0667 67.4 11.8 65.8C7.6 64.1333 3.86667 61.7667 0.6 58.7L8.5 49.3C10.8333 51.4333 13.4333 53.1333 16.3 54.4C19.2333 55.6667 22.1 56.3 24.9 56.3C28.1667 56.3 30.6 55.7 32.2 54.5C33.8667 53.2333 34.7 51.5 34.7 49.3C34.7 47.8333 34.3 46.6333 33.5 45.7C32.7 44.7667 31.5667 43.9667 30.1 43.3C28.7 42.5667 27.0333 41.8 25.1 41L16.5 37.3C14.2333 36.3667 12.1 35.1333 10.1 33.6C8.1 32.0667 6.46667 30.1667 5.2 27.9C3.93333 25.5667 3.3 22.8333 3.3 19.7C3.3 16.1 4.26667 12.8667 6.2 9.99999C8.2 7.13333 10.9 4.86666 14.3 3.2C17.7667 1.46666 21.7 0.599997 26.1 0.599997C29.9 0.599997 33.6 1.33333 37.2 2.8C40.8667 4.26667 44.0667 6.33333 46.8 9L39.8 17.7C37.7333 16.0333 35.6 14.7333 33.4 13.8C31.2 12.8667 28.7667 12.4 26.1 12.4C23.4333 12.4 21.2667 12.9667 19.6 14.1C18 15.2333 17.2 16.8333 17.2 18.9C17.2 20.3 17.6333 21.4667 18.5 22.4C19.3667 23.3333 20.5667 24.1667 22.1 24.9C23.7 25.5667 25.4333 26.3 27.3 27.1L35.7 30.5C38.3667 31.5667 40.6667 32.9 42.6 34.5C44.5333 36.1 46.0333 38.0333 47.1 40.3C48.2333 42.5 48.8 45.1333 48.8 48.2C48.8 51.8 47.8333 55.1333 45.9 58.2C44.0333 61.2 41.2667 63.6333 37.6 65.5C34 67.3 29.6667 68.2 24.6 68.2ZM60.0758 67V1.8H74.1758L92.1758 35.6L98.7758 49.8H99.1758C98.8425 46.3333 98.4425 42.5333 97.9758 38.4C97.5758 34.2667 97.3758 30.3 97.3758 26.5V1.8H110.476V67H96.3758L78.3758 33.1L71.7758 19H71.3758C71.7091 22.4667 72.0758 26.2333 72.4758 30.3C72.9424 34.3667 73.1758 38.3 73.1758 42.1V67H60.0758ZM126.287 67V1.8H166.687V13.3H139.987V27.5H162.687V39.1H139.987V55.5H167.687V67H126.287ZM172.379 67L193.079 1.8H209.479L230.179 67H215.679L206.679 33.4C205.746 30.0667 204.812 26.5667 203.879 22.9C203.012 19.2333 202.112 15.6667 201.179 12.2H200.779C199.979 15.6667 199.112 19.2333 198.179 22.9C197.312 26.5667 196.412 30.0667 195.479 33.4L186.379 67H172.379ZM185.579 50.8V40.1H216.779V50.8H185.579ZM237.615 67V1.8H251.315V29.4H251.715L272.315 1.8H287.515L267.615 27.6L291.015 67H275.915L259.515 38.4L251.315 49V67H237.615ZM298.552 67V1.8H338.952V13.3H312.252V27.5H334.952V39.1H312.252V55.5H339.952V67H298.552ZM353.045 67V1.8H376.045C380.645 1.8 384.811 2.4 388.545 3.6C392.278 4.8 395.245 6.86666 397.445 9.8C399.711 12.7333 400.845 16.7333 400.845 21.8C400.845 26.6667 399.711 30.6667 397.445 33.8C395.245 36.8667 392.278 39.1667 388.545 40.7C384.811 42.1667 380.645 42.9 376.045 42.9H366.745V67H353.045ZM388.445 67L373.545 39.2L383.145 30.6L403.845 67H388.445ZM366.745 31.9H374.845C378.911 31.9 382.011 31.0667 384.145 29.4C386.278 27.6667 387.345 25.1333 387.345 21.8C387.345 18.4 386.278 16.0333 384.145 14.7C382.011 13.3667 378.911 12.7 374.845 12.7H366.745V31.9ZM413.689 67V1.8H427.389V27.2H451.189V1.8H464.889V67H451.189V39.2H427.389V67H413.689ZM505.981 68.2C501.915 68.2 498.281 67.6 495.081 66.4C491.881 65.2 489.181 63.3667 486.981 60.9C484.781 58.4333 483.115 55.2333 481.981 51.3C480.848 47.3667 480.281 42.7 480.281 37.3V1.8H494.081V38.6C494.081 43 494.548 46.5 495.481 49.1C496.415 51.7 497.781 53.5667 499.581 54.7C501.381 55.7667 503.515 56.3 505.981 56.3C508.515 56.3 510.681 55.7667 512.481 54.7C514.281 53.5667 515.681 51.7 516.681 49.1C517.681 46.5 518.181 43 518.181 38.6V1.8H531.381V37.3C531.381 42.7 530.815 47.3667 529.681 51.3C528.615 55.2333 526.981 58.4333 524.781 60.9C522.648 63.3667 519.981 65.2 516.781 66.4C513.648 67.6 510.048 68.2 505.981 68.2ZM546.892 67V1.8H568.792C573.259 1.8 577.292 2.3 580.892 3.3C584.492 4.23333 587.326 5.9 589.392 8.3C591.526 10.6333 592.592 13.8333 592.592 17.9C592.592 20.9 591.792 23.7667 590.192 26.5C588.659 29.1667 586.526 31 583.792 32V32.4C587.259 33.2 590.126 34.8667 592.392 37.4C594.726 39.9333 595.892 43.4 595.892 47.8C595.892 52.2 594.759 55.8333 592.492 58.7C590.226 61.5 587.192 63.6 583.392 65C579.592 66.3333 575.326 67 570.592 67H546.892ZM560.592 56.4H569.392C573.659 56.4 576.892 55.6333 579.092 54.1C581.292 52.5 582.392 50.1 582.392 46.9C582.392 43.9 581.292 41.7333 579.092 40.4C576.892 39 573.659 38.3 569.392 38.3H560.592V56.4ZM560.592 28.1H567.992C571.859 28.1 574.659 27.3667 576.392 25.9C578.192 24.4333 579.092 22.4333 579.092 19.9C579.092 17.1667 578.159 15.2333 576.292 14.1C574.492 12.9667 571.759 12.4 568.092 12.4H560.592V28.1Z" fill="black"/>
</svg>

<svg width="596" height="69" fill="none" xmlns="http://www.w3.org/2000/svg"><path d="M24.6 68.2c-4.267 0-8.533-.8-12.8-2.4A35.162 35.162 0 0 1 .6 58.7l7.9-9.4a28.65 28.65 0 0 0 7.8 5.1c2.933 1.267 5.8 1.9 8.6 1.9 3.267 0 5.7-.6 7.3-1.8 1.667-1.267 2.5-3 2.5-5.2 0-1.467-.4-2.667-1.2-3.6-.8-.933-1.933-1.733-3.4-2.4-1.4-.733-3.067-1.5-5-2.3l-8.6-3.7a28.021 28.021 0 0 1-6.4-3.7c-2-1.533-3.633-3.433-4.9-5.7-1.267-2.333-1.9-5.067-1.9-8.2 0-3.6.967-6.833 2.9-9.7 2-2.867 4.7-5.133 8.1-6.8C17.767 1.467 21.7.6 26.1.6c3.8 0 7.5.733 11.1 2.2 3.667 1.467 6.867 3.533 9.6 6.2l-7 8.7c-2.067-1.667-4.2-2.967-6.4-3.9-2.2-.933-4.633-1.4-7.3-1.4s-4.833.567-6.5 1.7c-1.6 1.133-2.4 2.733-2.4 4.8 0 1.4.433 2.567 1.3 3.5.867.933 2.067 1.767 3.6 2.5 1.6.667 3.333 1.4 5.2 2.2l8.4 3.4c2.667 1.067 4.967 2.4 6.9 4a16.634 16.634 0 0 1 4.5 5.8c1.133 2.2 1.7 4.833 1.7 7.9 0 3.6-.967 6.933-2.9 10-1.867 3-4.633 5.433-8.3 7.3-3.6 1.8-7.933 2.7-13 2.7ZM60.076 67V1.8h14.1l18 33.8 6.6 14.2h.4a695.165 695.165 0 0 0-1.2-11.4c-.4-4.133-.6-8.1-.6-11.9V1.8h13.1V67h-14.1l-18-33.9-6.6-14.1h-.4c.333 3.467.7 7.233 1.1 11.3.466 4.067.7 8 .7 11.8V67h-13.1Zm66.211 0V1.8h40.4v11.5h-26.7v14.2h22.7v11.6h-22.7v16.4h27.7V67h-41.4Zm46.092 0 20.7-65.2h16.4l20.7 65.2h-14.5l-9-33.6a458.01 458.01 0 0 1-2.8-10.5 359.432 359.432 0 0 0-2.7-10.7h-.4c-.8 3.467-1.667 7.033-2.6 10.7a266.528 266.528 0 0 1-2.7 10.5l-9.1 33.6h-14Zm13.2-16.2V40.1h31.2v10.7h-31.2ZM237.615 67V1.8h13.7v27.6h.4l20.6-27.6h15.2l-19.9 25.8 23.4 39.4h-15.1l-16.4-28.6-8.2 10.6v18h-13.7Zm60.937 0V1.8h40.4v11.5h-26.7v14.2h22.7v11.6h-22.7v16.4h27.7V67h-41.4Zm54.493 0V1.8h23c4.6 0 8.766.6 12.5 1.8 3.733 1.2 6.7 3.267 8.9 6.2 2.266 2.933 3.4 6.933 3.4 12 0 4.867-1.134 8.867-3.4 12-2.2 3.067-5.167 5.367-8.9 6.9-3.734 1.467-7.9 2.2-12.5 2.2h-9.3V67h-13.7Zm35.4 0-14.9-27.8 9.6-8.6 20.7 36.4h-15.4Zm-21.7-35.1h8.1c4.066 0 7.166-.833 9.3-2.5 2.133-1.733 3.2-4.267 3.2-7.6 0-3.4-1.067-5.767-3.2-7.1-2.134-1.333-5.234-2-9.3-2h-8.1v19.2ZM413.689 67V1.8h13.7v25.4h23.8V1.8h13.7V67h-13.7V39.2h-23.8V67h-13.7Zm92.292 1.2c-4.066 0-7.7-.6-10.9-1.8-3.2-1.2-5.9-3.033-8.1-5.5-2.2-2.467-3.866-5.667-5-9.6-1.133-3.933-1.7-8.6-1.7-14V1.8h13.8v36.8c0 4.4.467 7.9 1.4 10.5.934 2.6 2.3 4.467 4.1 5.6 1.8 1.067 3.934 1.6 6.4 1.6 2.534 0 4.7-.533 6.5-1.6 1.8-1.133 3.2-3 4.2-5.6 1-2.6 1.5-6.1 1.5-10.5V1.8h13.2v35.5c0 5.4-.566 10.067-1.7 14-1.066 3.933-2.7 7.133-4.9 9.6-2.133 2.467-4.8 4.3-8 5.5-3.133 1.2-6.733 1.8-10.8 1.8Zm40.911-1.2V1.8h21.9c4.467 0 8.5.5 12.1 1.5 3.6.933 6.434 2.6 8.5 5 2.134 2.333 3.2 5.533 3.2 9.6 0 3-.8 5.867-2.4 8.6-1.533 2.667-3.666 4.5-6.4 5.5v.4c3.467.8 6.334 2.467 8.6 5 2.334 2.533 3.5 6 3.5 10.4s-1.133 8.033-3.4 10.9c-2.266 2.8-5.3 4.9-9.1 6.3-3.8 1.333-8.066 2-12.8 2h-23.7Zm13.7-10.6h8.8c4.267 0 7.5-.767 9.7-2.3 2.2-1.6 3.3-4 3.3-7.2 0-3-1.1-5.167-3.3-6.5-2.2-1.4-5.433-2.1-9.7-2.1h-8.8v18.1Zm0-28.3h7.4c3.867 0 6.667-.733 8.4-2.2 1.8-1.467 2.7-3.467 2.7-6 0-2.733-.933-4.667-2.8-5.8-1.8-1.133-4.533-1.7-8.2-1.7h-7.5v15.7Z" fill="#000"/></svg>
